packages/tokens/icons/shoppingAvailability/size16Px.svg

<svg viewBox="0 0 16 16" fill="none" xmlns="http://www.w3.org/2000/svg" width="1em" height="1em"><path d="M12.5 11.5L5.5 11.5C4.39543 11.5 3.5 10.6046 3.5 9.5L3.5 4.5C3.5 3.94772 3.05228 3.5 2.5 3.5H2" stroke="currentColor" stroke-linecap="round"/><path d="M10.5 5.5V4.5C10.5 3.92857 10 2.5 8.5 2.5C7 2.5 6.5 3.92857 6.5 4.5L6.5 5.5" stroke="currentColor" stroke-linecap="round"/><path d="M5.72951 8.90194L6.4099 5.5L10.5901 5.5L11.2705 8.90194C11.3324 9.21134 11.0957 9.5 10.7802 9.5H6.2198C5.90428 9.5 5.66763 9.21134 5.72951 8.90194Z" stroke="currentColor"/><circle cx="5" cy="14" r="0.5" stroke="currentColor" stroke-linecap="round"/><circle cx="11" cy="14" r="0.5" stroke="currentColor" stroke-linecap="round"/></svg>

<svg xmlns="http://www.w3.org/2000/svg" fill="none" viewBox="0 0 16 16" width="1em" height="1em"><path stroke="currentColor" stroke-linecap="round" d="M12.5 11.5h-7a2 2 0 0 1-2-2v-5a1 1 0 0 0-1-1H2m8.5 2v-1c0-.571-.5-2-2-2s-2 1.429-2 2v1"/><path stroke="currentColor" d="M5.73 8.902 6.41 5.5h4.18l.68 3.402a.5.5 0 0 1-.49.598H6.22a.5.5 0 0 1-.49-.598Z"/><circle cx="5" cy="14" r=".5" stroke="currentColor" stroke-linecap="round"/><circle cx="11" cy="14" r=".5" stroke="currentColor" stroke-linecap="round"/></svg>
